assets/icons/download.svg

<svg width="12" height="13" viewBox="0 0 12 13" fill="none" xmlns="http://www.w3.org/2000/svg">
<path d="M5.0625 0.5H6.9375C7.09375 0.5 7.22656 0.554688 7.33594 0.664062C7.44531 0.773438 7.5 0.90625 7.5 1.0625V5H9.5625C9.76562 5 9.90625 5.10156 9.98438 5.30469C10.0625 5.49219 10.0312 5.65625 9.89062 5.79688L6.32812 9.35938C6.23438 9.45312 6.125 9.5 6 9.5C5.875 9.5 5.76562 9.45312 5.67188 9.35938L2.10938 5.79688C1.96875 5.65625 1.9375 5.49219 2.01562 5.30469C2.09375 5.10156 2.23438 5 2.4375 5H4.5V1.0625C4.5 0.90625 4.55469 0.773438 4.66406 0.664062C4.77344 0.554688 4.90625 0.5 5.0625 0.5ZM12 9.3125V11.9375C12 12.0938 11.9453 12.2266 11.8359 12.3359C11.7266 12.4453 11.5938 12.5 11.4375 12.5H0.5625C0.40625 12.5 0.273438 12.4453 0.164062 12.3359C0.0546875 12.2266 0 12.0938 0 11.9375V9.3125C0 9.15625 0.0546875 9.02344 0.164062 8.91406C0.273438 8.80469 0.40625 8.75 0.5625 8.75H4.00781L5.15625 9.89844C5.39062 10.1328 5.67188 10.25 6 10.25C6.32812 10.25 6.60938 10.1328 6.84375 9.89844L7.99219 8.75H11.4375C11.5938 8.75 11.7266 8.80469 11.8359 8.91406C11.9453 9.02344 12 9.15625 12 9.3125ZM8.95312 11.7031C9.04688 11.6094 9.09375 11.5 9.09375 11.375C9.09375 11.25 9.04688 11.1406 8.95312 11.0469C8.85938 10.9531 8.75 10.9062 8.625 10.9062C8.5 10.9062 8.39062 10.9531 8.29688 11.0469C8.20312 11.1406 8.15625 11.25 8.15625 11.375C8.15625 11.5 8.20312 11.6094 8.29688 11.7031C8.39062 11.7969 8.5 11.8438 8.625 11.8438C8.75 11.8438 8.85938 11.7969 8.95312 11.7031ZM10.4531 11.7031C10.5469 11.6094 10.5938 11.5 10.5938 11.375C10.5938 11.25 10.5469 11.1406 10.4531 11.0469C10.3594 10.9531 10.25 10.9062 10.125 10.9062C10 10.9062 9.89062 10.9531 9.79688 11.0469C9.70312 11.1406 9.65625 11.25 9.65625 11.375C9.65625 11.5 9.70312 11.6094 9.79688 11.7031C9.89062 11.7969 10 11.8438 10.125 11.8438C10.25 11.8438 10.3594 11.7969 10.4531 11.7031Z" fill="black"/>
</svg>

<svg xmlns="http://www.w3.org/2000/svg" width="12" height="13" fill="none"  xmlns:v="https://vecta.io/nano"><path d="M5.063.5h1.875a.54.54 0 0 1 .398.164.54.54 0 0 1 .164.398V5h2.063c.203 0 .344.102.422.305.078.188.047.352-.094.492L6.328 9.359A.45.45 0 0 1 6 9.5a.45.45 0 0 1-.328-.141L2.109 5.797c-.141-.141-.172-.305-.094-.492.078-.203.219-.305.422-.305H4.5V1.063a.54.54 0 0 1 .164-.398A.54.54 0 0 1 5.063.5zM12 9.313v2.625a.54.54 0 0 1-.562.563H.563a.54.54 0 0 1-.398-.164.54.54 0 0 1-.164-.398V9.313a.54.54 0 0 1 .164-.398.54.54 0 0 1 .398-.164h3.445l1.148 1.148A1.15 1.15 0 0 0 6 10.25a1.15 1.15 0 0 0 .844-.352L7.992 8.75h3.445a.54.54 0 0 1 .398.164.54.54 0 0 1 .164.398zm-3.047 2.391a.45.45 0 0 0 0-.656.45.45 0 0 0-.656 0 .45.45 0 0 0 0 .656.45.45 0 0 0 .656 0zm1.5 0a.45.45 0 0 0 0-.656.45.45 0 0 0-.656 0 .45.45 0 0 0 0 .656.45.45 0 0 0 .656 0z" fill="#000"/></svg>
